X:29
T:Merrily Dance the Quaker
T:Merrily Kiss the Quaker's Wife (a 3 turn Irish setting)
R:jig
C:traditional
B:Bremner's Collections, 1757
N:melodic code 15L26L 15L6L1 (1526 1561)
Z:Paul Stewart Cranford (P.S.C.), <http://www.cranfordpub.com>
L:1/8
Q:288
M:6/8
K:G
(GAB) D2 B|A2 G TE2D|(GAB) D2 D |E3 G3:|
dcB edc|dcB ABc|dcB efg|TB3 d3|
dcB gfe|dcB A2 A|GAB D2 D|E3 G3:|
